!!!OTL: Argwohn.
!!!OTL-incipit: UND DIE WUERZBURGER GLOECKLI HOBE SCHOENES GELAEUT
!!!ARE: Europa, Mitteleuropa, Deutschland, Bayern; Tirol
!!!SCT: Z1192
!!!YEM: Copyright 1995, estate of Helmut Schaffrath.
**kern	**text
*ICvox	*
*M3/4	*
*k[f#c#]	*
*D:	*
!LO:TX:a:t=Aus Tyrol und Bayern.	!
{8f#	Und
8g	die
=1	=1
4.a	Würʒ-
8g	-bur-
4f#	-ger
=2	=2
4f#	Glöck-
4e}	-li
{4e	hobe
=3	=3
4.g	ſchö-
8f#	-nes
4e	Ge-
=4	=4
(4g	-läut
4f#)}	.
{8f#	und
8g	die
=5	=5
4.a	Würʒ-
8g	-bur-
4f#	-ger
=6	=6
4f#	Maid-
4e}	-li
{4e	ſein
=7	=7
4b/	kreuʒ-
4a	-bra-
4c#	-ve
=8	=8
2d	Leut'!
8r}	.
{8a	La
=9	=9
8a/L	la
8ggJ	.
4.ee/	la
8a	la
=10	=10
8a/L	la
8ff#J	.
4.dd/}	la
{8a	la
=11	=11
8a/L	la
8cc#J	.
8ee/L	la
8aJ	.
8cc#/L	la
8eeJ	.
=12	=12
8dd/	la
8a	la
8dd/	la
8ff#/	la
8.aa/}	la
{16a	la
=13	=13
8a/L	la
8ggJ	.
4.ee/	la
8a	la
=14	=14
8a/L	la
8ff#J	.
4.dd/}	la
{8a	la
=15	=15
(8a/L	la!
8b	.
8cc#	.
8dd	.
8ff#	.
8eeJ	.
=16	=16
2dd)}	.
==	==
!!!AGN: Liebes - Lied
!! Die letzten 8 Takte werden auf die Silbe 'la' gesungen
!!!ONB: ESAC (Essen Associative Code) Database: ZUCCAL
!!!AMT: simple triple
!!!AIN: vox
!!!EED: Helmut Schaffrath
!!!EEV: 1.0
!!!GTL: V. Lieder der Minne.
!!!URL-scan: https://www.digitale-sammlungen.de/de/view/bsb11160573?page=393
!!!ENC: Anna Maria Matuszewska
!!!EEV: 2025/02/05
*-	*-
